X:2906
T:Polonäs i Dm efter Daniel Danielsson
B:Daniel Danielssons notbok, nr 25
B:http://www.smus.se/earkiv/fmk/browselarge.php?lang=sw&katalogid=MMD+47&bildnr=00009
B:Jämför [[http://www.smus.se/earkiv/fmk/browselarge.php?lang=sw&katalogid=MMD+20&bildnr=00017|SMUS - katalog MMD20 bild 17]] nr 31 ur [[Notböcker/Johan Anderssons notbok]]
O:Södra gården, Härjedalen
Z:Nils L
R:Slängpolska
M:3/4
L:1/16
K:Dm
d2df e2eg f2fa | g2gb a2f2 e2c2 | d2df e2a2 f2d2 | c2de A4 A4 ::
A2BA G2F2 E2D2 | F2ED C2D2 A,4 | A2BA G2F2 E2D2 | F2ED ^C4 D4 :|
(:musicend:)
(:music:)
